X:241
T:Mrs. Martin's Favourite
B:Joyce, P. W.; "Old Irish Folk Music and Songs"
R:jig
L:1/8
M:6/8
K:G
d|BEE EFA|BAB d2 B|AFD DED|FAA A2 d|
BEE EFA|BAB d2 B|AFd AFD|EFE E2::d|
efe edB efg f2 e|ded dAF|ABA ABd|
efe edB|efg faf|edB AFD|EFE E2:|
